; generated by PrusaSlicer 2.5.0+linux-x64-GTK3 on 2023-02-15 at 23:53:04 UTC


;
;
; 

; external perimeters extrusion width = 0.60mm
; perimeters extrusion width = 0.50mm
; infill extrusion width = 0.50mm
; solid infill extrusion width = 0.50mm
; top infill extrusion width = 0.45mm
; first layer extrusion width = 0.42mm

M73 P0 R74
M73 Q0 S75
M201 X1000 Y1000 Z200 E5000 ; sets maximum accelerations, mm/sec^2
M203 X200 Y200 Z12 E120 ; sets maximum feedrates, mm / sec
M204 P1250 R1250 T1250 ; sets acceleration (P, T) and retract acceleration (R), mm/sec^2
M205 X8.00 Y8.00 Z0.40 E4.50 ; sets the jerk limits, mm/sec
M205 S0 T0 ; sets the minimum extruding and travel feed rate, mm/sec
M107
;TYPE:Custom
M862.3 P "MK3S" ; printer model check
M862.1 P0.4 ; nozzle diameter check
M115 U3.11.0 ; tell printer latest fw version
G90 ; use absolute coordinates
M83 ; extruder relative mode
M104 S215 ; set extruder temp
M140 S60 ; set bed temp
M190 S60 ; wait for bed temp
M109 S215 ; wait for extruder temp
G28 W ; home all without mesh bed level
G80 ; mesh bed leveling

G1 Z0.2 F720
G1 Y-3 F1000 ; go outside print area
G92 E0
G1 X60 E9 F1000 ; intro line
G1 X100 E12.5 F1000 ; intro line

G92 E0
M221 S95

; Don't change E values below. Excessive value can damage the printer.

M907 E538 ; set extruder motor current
G21 ; set units to millimeters
G90 ; use absolute coordinates
M83 ; use relative distances for extrusion
M900 K0.05 ; Filament gcode LA 1.5
M900 K30 ; Filament gcode LA 1.0
M107
;LAYER_CHANGE
;Z:0.2
;HEIGHT:0.2
;BEFORE_LAYER_CHANGE
G92 E0.0
;0.2


G1 E-.8 F2100
G1 Z.4 F720
;AFTER_LAYER_CHANGE
;0.2
G1 X64.595 Y24.953 F10800
G1 Z.2 F720
G1 E.8 F2100
M204 S800
;TYPE:Skirt/Brim
;WIDTH:0.42
G1 F1200
G1 X65.64 Y24.077 E.04278
G1 X66.58 Y23.883 E.03008
G1 X183.42 Y23.883 E3.66344
G1 X184.727 Y24.275 E.04278
M73 P0 R73
G1 X185.603 Y25.32 E.04278
G1 X185.797 Y26.26 E.03008
G1 X185.797 Y183.74 E4.93767
G1 X185.405 Y185.047 E.04278
M73 Q0 S74
G1 X184.36 Y185.923 E.04278
G1 X183.42 Y186.117 E.03008
G1 X66.58 Y186.117 E3.66344
G1 X65.273 Y185.725 E.04278
G1 X64.397 Y184.68 E.04278
G1 X64.203 Y183.74 E.03008
G1 X64.203 Y26.26 E4.93767
G1 X64.577 Y25.01 E.0409
M204 S1000
; printing object bd1-6x-blister-box v5.stl id:0 copy 0
;WIPE_START
G1 F8640
G1 X65.64 Y24.077 E-.32671
G1 X66.58 Y23.883 E-.22155
G1 X67.497 Y23.883 E-.21174
;WIPE_END
G1 E-.04 F2100
G1 Z.6 F720
G1 X182.633 Y182.953 F10800
G1 Z.2 F720
G1 E.8 F2100
M204 S800
;TYPE:Perimeter
;WIDTH:0.419999
G1 F1200
G1 X67.367 Y182.953 E3.61407
G1 X67.367 Y27.047 E4.88831
G1 X182.633 Y27.047 E3.61407
M73 P1 R73
M73 Q1 S74
G1 X182.633 Y182.893 E4.88643
M204 S1000
G1 X183.01 Y183.33 F10800
M204 S800
;TYPE:External perimeter
G1 F1200
G1 X66.99 Y183.33 E3.63772
G1 X66.99 Y26.67 E4.91196
M73 P1 R72
G1 X183.01 Y26.67 E3.63772
G1 X183.01 Y183.27 E4.91007
M204 S1000
M73 Q1 S73
G1 X182.629 Y183.208 F10800
;WIPE_START
M73 P2 R72
M73 Q2 S73
G1 F8640
G1 X179.719 Y183.272 E-.76
;WIPE_END
G1 E-.04 F2100
G1 Z.6 F720
G1 X78.652 Y101.784 F10800
G1 Z.2 F720
G1 E.8 F2100
M204 S800
;TYPE:Perimeter
G1 F1200
G1 X78.582 Y101.717 E.00305
G1 X78.499 Y101.494 E.00745
G1 X78.493 Y101.411 E.00259
G1 X78.493 Y33.659 E2.12434
G1 X78.501 Y33.566 E.0029
G1 X78.59 Y33.341 E.0076
G1 X78.732 Y33.197 E.00633
G1 X78.961 Y33.101 E.00778
G1 X79.059 Y33.093 E.00308
G1 X112.521 Y33.093 E1.0492
G1 X112.761 Y33.146 E.00769
G1 X112.941 Y33.28 E.00703
G1 X113.07 Y33.519 E.00853
G1 X113.087 Y33.659 E.0044
G1 X113.087 Y101.411 E2.12434
G1 X113.025 Y101.669 E.0083
G1 X112.83 Y101.885 E.00913
G1 X112.642 Y101.964 E.00642
G1 X112.521 Y101.977 E.00379
G1 X79.059 Y101.977 E1.0492
G1 X78.773 Y101.9 E.00928
G1 X78.696 Y101.825 E.00336
M204 S1000
G1 X78.915 Y101.534 F10800
M204 S800
;TYPE:External perimeter
G1 F1200
G1 X78.87 Y101.411 E.00409
G1 X78.873 Y33.628 E2.12531
G1 X78.95 Y33.505 E.00455
G1 X79.059 Y33.47 E.00358
G1 X112.521 Y33.47 E1.0492
G1 X112.661 Y33.532 E.0048
G1 X112.71 Y33.659 E.00424
G1 X112.71 Y101.411 E2.12434
G1 X112.645 Y101.554 E.0049
G1 X112.521 Y101.6 E.00414
G1 X79.059 Y101.6 E1.0492
G1 X78.97 Y101.559 E.00307
M204 S1000
G1 X78.788 Y101.564 F10800
;WIPE_START
G1 F8640
G1 X78.87 Y101.411 E-.04111
G1 X78.87 Y98.298 E-.71889
;WIPE_END
G1 E-.04 F2100
G1 Z.6 F720
G1 X171.498 Y33.598 F10800
G1 Z.2 F720
G1 E.8 F2100
M204 S800
;TYPE:Perimeter
G1 F1200
G1 X171.507 Y101.411 E2.12625
G1 X171.455 Y101.648 E.00761
G1 X171.29 Y101.857 E.00836
G1 X171.05 Y101.967 E.00826
G1 X170.941 Y101.977 E.00341
G1 X137.479 Y101.977 E1.0492
G1 X137.253 Y101.93 E.00722
G1 X137.03 Y101.756 E.00889
G1 X136.919 Y101.492 E.00897
G1 X136.913 Y101.411 E.00253
G1 X136.913 Y33.659 E2.12434
G1 X136.956 Y33.441 E.00696
G1 X137.139 Y33.206 E.00933
G1 X137.381 Y33.101 E.00826
G1 X137.479 Y33.093 E.00308
G1 X170.941 Y33.093 E1.0492
G1 X171.171 Y33.142 E.00736
G1 X171.348 Y33.265 E.00677
G1 X171.483 Y33.495 E.00834
G1 X171.489 Y33.538 E.00138
M204 S1000
G1 X171.13 Y33.659 F10800
M204 S800
;TYPE:External perimeter
G1 F1200
G1 X171.13 Y101.411 E2.12434
G1 X171.073 Y101.546 E.00459
G1 X170.941 Y101.6 E.00446
G1 X137.479 Y101.6 E1.0492
G1 X137.34 Y101.539 E.00475
G1 X137.29 Y101.411 E.0043
G1 X137.29 Y33.659 E2.12434
G1 X137.339 Y33.532 E.00424
M73 P2 R71
G1 X137.479 Y33.47 E.0048
G1 X170.941 Y33.47 E1.0492
G1 X171.077 Y33.527 E.00462
M73 P3 R71
G1 X171.107 Y33.603 E.00255
M204 S1000
G1 X171.516 Y33.762 F10800
;WIPE_START
G1 F8640
G1 X171.109 Y36.894 E-.76
;WIPE_END
G1 E-.04 F2100
G1 Z.6 F720
G1 X137.377 Y108.043 F10800
G1 Z.2 F720
M73 Q3 S73
G1 E.8 F2100
M204 S800
;TYPE:Perimeter
G1 F1200
G1 X137.479 Y108.023 E.00326
G1 X170.941 Y108.023 E1.0492
G1 X171.227 Y108.1 E.00928
G1 X171.418 Y108.283 E.00828
G1 X171.501 Y108.506 E.00745
G1 X171.507 Y108.589 E.00259
G1 X171.507 Y176.341 E2.12434
G1 X171.454 Y176.581 E.0077
M73 Q3 S72
G1 X171.268 Y176.803 E.00907
G1 X171.039 Y176.899 E.00778
G1 X170.941 Y176.907 E.00308
G1 X137.479 Y176.907 E1.0492
G1 X137.239 Y176.854 E.00769
G1 X137.059 Y176.72 E.00703
G1 X136.93 Y176.481 E.00853
G1 X136.913 Y176.341 E.0044
G1 X136.913 Y108.589 E2.12434
G1 X136.975 Y108.331 E.0083
G1 X137.17 Y108.115 E.00913
G1 X137.32 Y108.063 E.00499
M204 S1000
G1 X137.479 Y108.4 F10800
M204 S800
;TYPE:External perimeter
G1 F1200
G1 X170.941 Y108.4 E1.0492
G1 X171.085 Y108.466 E.00495
G1 X171.13 Y108.589 E.00409
G1 X171.13 Y176.341 E2.12434
G1 X171.077 Y176.473 E.00443
G1 X170.941 Y176.53 E.00462
G1 X137.479 Y176.53 E1.0492
G1 X137.339 Y176.468 E.0048
G1 X137.29 Y176.341 E.00424
G1 X137.29 Y108.589 E2.12434
G1 X137.355 Y108.446 E.0049
G1 X137.422 Y108.421 E.00226
M204 S1000
G1 X137.582 Y108.014 F10800
;WIPE_START
G1 F8640
G1 X140.714 Y108.419 E-.76
;WIPE_END
G1 E-.04 F2100
G1 Z.6 F720
G1 X79.009 Y108.028 F10800
G1 Z.2 F720
G1 E.8 F2100
M204 S800
;TYPE:Perimeter
G1 F1200
G1 X112.521 Y108.023 E1.05077
G1 X112.747 Y108.07 E.00722
G1 X112.97 Y108.244 E.00889
G1 X113.081 Y108.508 E.00897
G1 X113.087 Y108.589 E.00253
G1 X113.087 Y176.341 E2.12434
G1 X113.044 Y176.559 E.00696
G1 X112.861 Y176.794 E.00933
G1 X112.619 Y176.899 E.00826
G1 X112.521 Y176.907 E.00308
G1 X79.059 Y176.907 E1.0492
G1 X78.829 Y176.858 E.00736
G1 X78.652 Y176.735 E.00677
G1 X78.517 Y176.505 E.00834
G1 X78.493 Y176.341 E.00519
G1 X78.493 Y108.589 E2.12434
G1 X78.545 Y108.352 E.00761
G1 X78.71 Y108.143 E.00836
G1 X78.949 Y108.034 E.00822
M204 S1000
G1 X79.059 Y108.4 F10800
M204 S800
;TYPE:External perimeter
G1 F1200
G1 X112.521 Y108.4 E1.0492
G1 X112.66 Y108.461 E.00475
G1 X112.71 Y108.589 E.0043
G1 X112.71 Y176.341 E2.12434
G1 X112.661 Y176.468 E.00424
G1 X112.521 Y176.53 E.0048
G1 X79.059 Y176.53 E1.0492
G1 X78.923 Y176.473 E.00462
G1 X78.87 Y176.341 E.00443
G1 X78.87 Y108.589 E2.12434
G1 X78.927 Y108.454 E.00459
G1 X79.003 Y108.423 E.00258
M204 S1000
G1 X79.162 Y108.014 F10800
;WIPE_START
G1 F8640
G1 X82.294 Y108.42 E-.76
;WIPE_END
G1 E-.04 F2100
G1 Z.6 F720
G1 X182.52 Y27.924 F10800
G1 Z.2 F720
M73 P4 R71
G1 E.8 F2100
M204 S800
;TYPE:Solid infill
;WIDTH:0.420594
G1 F1200
G1 X181.926 Y27.33 E.02637
G1 X181.392 Y27.33 E.01677
G1 X182.35 Y28.288 E.04256
G1 X182.35 Y28.822 E.01677
G1 X180.858 Y27.33 E.06628
G1 X180.324 Y27.33 E.01677
G1 X182.35 Y29.356 E.09
G1 X182.35 Y29.89 E.01677
G1 X179.79 Y27.33 E.11372
G1 X179.255 Y27.33 E.01677
G1 X182.35 Y30.425 E.13744
G1 X182.35 Y30.959 E.01677
M73 Q4 S72
G1 X178.721 Y27.33 E.16116
G1 X178.187 Y27.33 E.01677
G1 X182.35 Y31.493 E.18488
G1 X182.35 Y32.027 E.01677
G1 X177.653 Y27.33 E.2086
G1 X177.119 Y27.33 E.01677
G1 X182.35 Y32.561 E.23232
G1 X182.35 Y33.095 E.01677
G1 X176.585 Y27.33 E.25605
G1 X176.051 Y27.33 E.01677
G1 X182.35 Y33.629 E.27977
G1 X182.35 Y34.163 E.01677
G1 X175.517 Y27.33 E.30349
G1 X174.983 Y27.33 E.01677
G1 X182.35 Y34.697 E.32721
G1 X182.35 Y35.232 E.01677
G1 X174.448 Y27.33 E.35093
G1 X173.914 Y27.33 E.01677
G1 X182.35 Y35.766 E.37465
G1 X182.35 Y36.3 E.01677
G1 X173.38 Y27.33 E.39837
G1 X172.846 Y27.33 E.01677
G1 X182.35 Y36.834 E.42209
G1 X182.35 Y37.368 E.01677
G1 X172.312 Y27.33 E.44581
G1 X171.778 Y27.33 E.01677
G1 X182.35 Y37.902 E.46953
G1 X182.35 Y38.436 E.01677
G1 X171.244 Y27.33 E.49325
G1 X170.71 Y27.33 E.01677
G1 X182.35 Y38.97 E.51697
G1 X182.35 Y39.504 E.01677
G1 X170.176 Y27.33 E.54069
G1 X169.641 Y27.33 E.01677
M73 P4 R70
G1 X182.35 Y40.039 E.56441
G1 X182.35 Y40.573 E.01677
G1 X169.107 Y27.33 E.58814
G1 X168.573 Y27.33 E.01677
G1 X182.35 Y41.107 E.61186
G1 X182.35 Y41.641 E.01677
G1 X168.039 Y27.33 E.63558
G1 X167.505 Y27.33 E.01677
G1 X182.35 Y42.175 E.6593
G1 X182.35 Y42.709 E.01677
G1 X166.971 Y27.33 E.68302
G1 X166.437 Y27.33 E.01677
G1 X182.35 Y43.243 E.70674
G1 X182.35 Y43.777 E.01677
G1 X165.903 Y27.33 E.73046
G1 X165.369 Y27.33 E.01677
G1 X170.849 Y32.81 E.24339
G1 X171.119 Y32.828 E.00852
G1 X171.286 Y32.883 E.0055
G1 X171.432 Y32.965 E.00527
G1 X171.554 Y33.071 E.00508
G1 X171.71 Y33.297 E.00864
G1 X171.779 Y33.517 E.00724
G1 X171.79 Y33.751 E.00735
G1 X182.35 Y44.311 E.469
G1 X182.35 Y44.846 E.01677
M73 Q4 S71
G1 X171.79 Y34.285 E.469
G1 X171.79 Y34.819 E.01677
G1 X182.35 Y45.38 E.469
G1 X182.35 Y45.914 E.01677
G1 X171.79 Y35.354 E.469
G1 X171.79 Y35.888 E.01677
G1 X182.35 Y46.448 E.469
G1 X182.35 Y46.982 E.01677
G1 X171.79 Y36.422 E.469
G1 X171.79 Y36.956 E.01677
G1 X182.35 Y47.516 E.469
G1 X182.35 Y48.05 E.01677
G1 X171.79 Y37.49 E.469
G1 X171.79 Y38.024 E.01677
G1 X182.35 Y48.584 E.469
G1 X182.35 Y49.119 E.01677
G1 X171.79 Y38.558 E.469
G1 X171.79 Y39.092 E.01677
G1 X182.35 Y49.653 E.469
G1 X182.35 Y50.187 E.01677
G1 X171.79 Y39.626 E.469
G1 X171.79 Y40.161 E.01677
G1 X182.35 Y50.721 E.469
G1 X182.35 Y51.255 E.01677
G1 X171.79 Y40.695 E.469
G1 X171.79 Y41.229 E.01677
G1 X182.35 Y51.789 E.469
G1 X182.35 Y52.323 E.01677
G1 X171.79 Y41.763 E.469
G1 X171.79 Y42.297 E.01677
G1 X182.35 Y52.857 E.469
G1 X182.35 Y53.391 E.01677
G1 X171.79 Y42.831 E.469
G1 X171.79 Y43.365 E.01677
G1 X182.35 Y53.926 E.469
G1 X182.35 Y54.46 E.01677
G1 X171.79 Y43.899 E.469
G1 X171.79 Y44.433 E.01677
G1 X182.35 Y54.994 E.469
G1 X182.35 Y55.528 E.01677
G1 X171.79 Y44.968 E.469
G1 X171.79 Y45.502 E.01677
G1 X182.35 Y56.062 E.469
G1 X182.35 Y56.596 E.01677
G1 X171.79 Y46.036 E.469
G1 X171.79 Y46.57 E.01677
G1 X182.35 Y57.13 E.469
G1 X182.35 Y57.664 E.01677
G1 X171.79 Y47.104 E.469
G1 X171.79 Y47.638 E.01677
G1 X182.35 Y58.198 E.469
G1 X182.35 Y58.733 E.01677
G1 X171.79 Y48.172 E.469
G1 X171.79 Y48.706 E.01677
G1 X182.35 Y59.267 E.469
G1 X182.35 Y59.801 E.01677
G1 X171.79 Y49.24 E.469
G1 X171.79 Y49.775 E.01677
G1 X182.35 Y60.335 E.469
G1 X182.35 Y60.869 E.01677
M73 P5 R70
G1 X171.79 Y50.309 E.469
G1 X171.79 Y50.843 E.01677
G1 X182.35 Y61.403 E.469
G1 X182.35 Y61.937 E.01677
M73 Q5 S71
G1 X171.79 Y51.377 E.469
G1 X171.79 Y51.911 E.01677
G1 X182.35 Y62.471 E.469
G1 X182.35 Y63.005 E.01677
G1 X171.79 Y52.445 E.469
G1 X171.79 Y52.979 E.01677
G1 X182.35 Y63.54 E.469
G1 X182.35 Y64.074 E.01677
G1 X171.79 Y53.513 E.469
G1 X171.79 Y54.047 E.01677
G1 X182.35 Y64.608 E.469
G1 X182.35 Y65.142 E.01677
G1 X171.79 Y54.582 E.469
G1 X171.79 Y55.116 E.01677
G1 X182.35 Y65.676 E.469
G1 X182.35 Y66.21 E.01677
G1 X171.79 Y55.65 E.469
G1 X171.79 Y56.184 E.01677
G1 X182.35 Y66.744 E.469
G1 X182.35 Y67.278 E.01677
G1 X171.79 Y56.718 E.469
G1 X171.79 Y57.252 E.01677
G1 X182.35 Y67.812 E.469
G1 X182.35 Y68.347 E.01677
G1 X171.79 Y57.786 E.469
G1 X171.79 Y58.32 E.01677
G1 X182.35 Y68.881 E.469
G1 X182.35 Y69.415 E.01677
G1 X171.79 Y58.854 E.469
G1 X171.79 Y59.389 E.01677
G1 X182.35 Y69.949 E.469
G1 X182.35 Y70.483 E.01677
G1 X171.79 Y59.923 E.469
G1 X171.79 Y60.457 E.01677
G1 X182.35 Y71.017 E.469
G1 X182.35 Y71.551 E.01677
G1 X171.79 Y60.991 E.469
G1 X171.79 Y61.525 E.01677
G1 X182.35 Y72.085 E.469
G1 X182.35 Y72.619 E.01677
G1 X171.79 Y62.059 E.469
G1 X171.79 Y62.593 E.01677
G1 X182.35 Y73.154 E.469
G1 X182.35 Y73.688 E.01677
G1 X171.79 Y63.127 E.469
G1 X171.79 Y63.662 E.01677
G1 X182.35 Y74.222 E.469
G1 X182.35 Y74.756 E.01677
G1 X171.79 Y64.196 E.469
G1 X171.79 Y64.73 E.01677
G1 X182.35 Y75.29 E.469
G1 X182.35 Y75.824 E.01677
G1 X171.79 Y65.264 E.469
G1 X171.79 Y65.798 E.01677
G1 X182.35 Y76.358 E.469
G1 X182.35 Y76.892 E.01677
G1 X171.79 Y66.332 E.469
G1 X171.79 Y66.866 E.01677
G1 X182.35 Y77.426 E.469
G1 X182.35 Y77.961 E.01677
G1 X171.79 Y67.4 E.469
G1 X171.79 Y67.934 E.01677
G1 X182.35 Y78.495 E.469
G1 X182.35 Y79.029 E.01677
M73 P5 R69
G1 X171.79 Y68.469 E.469
G1 X171.79 Y69.003 E.01677
G1 X182.35 Y79.563 E.469
G1 X182.35 Y80.097 E.01677
G1 X171.79 Y69.537 E.469
G1 X171.79 Y70.071 E.01677
G1 X182.35 Y80.631 E.469
G1 X182.35 Y81.165 E.01677
G1 X171.79 Y70.605 E.469
G1 X171.79 Y71.139 E.01677
G1 X182.35 Y81.699 E.469
G1 X182.35 Y82.233 E.01677
G1 X171.79 Y71.673 E.469
G1 X171.79 Y72.207 E.01677
G1 X182.35 Y82.768 E.469
G1 X182.35 Y83.302 E.01677
G1 X171.79 Y72.741 E.469
G1 X171.79 Y73.276 E.01677
G1 X182.35 Y83.836 E.469
G1 X182.35 Y84.37 E.01677
G1 X171.79 Y73.81 E.469
G1 X171.79 Y74.344 E.01677
G1 X182.35 Y84.904 E.469
G1 X182.35 Y85.438 E.01677
M73 Q5 S70
G1 X171.79 Y74.878 E.469
G1 X171.79 Y75.412 E.01677
G1 X182.35 Y85.972 E.469
G1 X182.35 Y86.506 E.01677
G1 X171.79 Y75.946 E.469
G1 X171.79 Y76.48 E.01677
G1 X182.35 Y87.04 E.469
G1 X182.35 Y87.575 E.01677
G1 X171.79 Y77.014 E.469
G1 X171.79 Y77.548 E.01677
G1 X182.35 Y88.109 E.469
G1 X182.35 Y88.643 E.01677
G1 X171.79 Y78.083 E.469
G1 X171.79 Y78.617 E.01677
G1 X182.35 Y89.177 E.469
G1 X182.35 Y89.711 E.01677
G1 X171.79 Y79.151 E.469
G1 X171.79 Y79.685 E.01677
G1 X182.35 Y90.245 E.469
G1 X182.35 Y90.779 E.01677
M73 P6 R69
G1 X171.79 Y80.219 E.469
G1 X171.79 Y80.753 E.01677
G1 X182.35 Y91.313 E.469
G1 X182.35 Y91.847 E.01677
G1 X171.79 Y81.287 E.469
G1 X171.79 Y81.821 E.01677
G1 X182.35 Y92.382 E.469
G1 X182.35 Y92.916 E.01677
M73 Q6 S70
G1 X171.79 Y82.355 E.469
G1 X171.79 Y82.89 E.01677
G1 X182.35 Y93.45 E.469
G1 X182.35 Y93.984 E.01677
G1 X171.79 Y83.424 E.469
G1 X171.79 Y83.958 E.01677
G1 X182.35 Y94.518 E.469
G1 X182.35 Y95.052 E.01677
G1 X171.79 Y84.492 E.469
G1 X171.79 Y85.026 E.01677
G1 X182.35 Y95.586 E.469
G1 X182.35 Y96.12 E.01677
G1 X171.79 Y85.56 E.469
G1 X171.79 Y86.094 E.01677
G1 X182.35 Y96.654 E.469
G1 X182.35 Y97.189 E.01677
G1 X171.79 Y86.628 E.469
G1 X171.79 Y87.162 E.01677
G1 X182.35 Y97.723 E.469
G1 X182.35 Y98.257 E.01677
G1 X171.79 Y87.697 E.469
G1 X171.79 Y88.231 E.01677
G1 X182.35 Y98.791 E.469
G1 X182.35 Y99.325 E.01677
G1 X171.79 Y88.765 E.469
G1 X171.79 Y89.299 E.01677
G1 X182.35 Y99.859 E.469
G1 X182.35 Y100.393 E.01677
G1 X171.79 Y89.833 E.469
G1 X171.79 Y90.367 E.01677
G1 X182.35 Y100.927 E.469
G1 X182.35 Y101.461 E.01677
G1 X171.79 Y90.901 E.469
G1 X171.79 Y91.435 E.01677
G1 X182.35 Y101.996 E.469
G1 X182.35 Y102.53 E.01677
G1 X171.79 Y91.969 E.469
G1 X171.79 Y92.504 E.01677
G1 X182.35 Y103.064 E.469
G1 X182.35 Y103.598 E.01677
G1 X171.79 Y93.038 E.469
G1 X171.79 Y93.572 E.01677
G1 X182.35 Y104.132 E.469
G1 X182.35 Y104.666 E.01677
G1 X171.79 Y94.106 E.469
G1 X171.79 Y94.64 E.01677
G1 X182.35 Y105.2 E.469
G1 X182.35 Y105.734 E.01677
G1 X171.79 Y95.174 E.469
G1 X171.79 Y95.708 E.01677
G1 X182.35 Y106.268 E.469
