; generated by PrusaSlicer 2.5.0+linux-x64-GTK3 on 2022-12-13 at 02:59:02 UTC


;
;
; 

; external perimeters extrusion width = 0.60mm
; perimeters extrusion width = 0.50mm
; infill extrusion width = 0.50mm
; solid infill extrusion width = 0.50mm
; top infill extrusion width = 0.45mm
; first layer extrusion width = 0.42mm

M73 P0 R22
M73 Q0 S22
M201 X1000 Y1000 Z200 E5000 ; sets maximum accelerations, mm/sec^2
M203 X200 Y200 Z12 E120 ; sets maximum feedrates, mm / sec
M204 P1250 R1250 T1250 ; sets acceleration (P, T) and retract acceleration (R), mm/sec^2
M205 X8.00 Y8.00 Z0.40 E4.50 ; sets the jerk limits, mm/sec
M205 S0 T0 ; sets the minimum extruding and travel feed rate, mm/sec
M107
;TYPE:Custom
M862.3 P "MK3S" ; printer model check
M862.1 P0.4 ; nozzle diameter check
M115 U3.11.0 ; tell printer latest fw version
G90 ; use absolute coordinates
M83 ; extruder relative mode
M104 S215 ; set extruder temp
M140 S60 ; set bed temp
M190 S60 ; wait for bed temp
M109 S215 ; wait for extruder temp
G28 W ; home all without mesh bed level
G80 ; mesh bed leveling

G1 Z0.2 F720
G1 Y-3 F1000 ; go outside print area
G92 E0
G1 X60 E9 F1000 ; intro line
G1 X100 E12.5 F1000 ; intro line

G92 E0
M221 S95

; Don't change E values below. Excessive value can damage the printer.

M907 E538 ; set extruder motor current
G21 ; set units to millimeters
G90 ; use absolute coordinates
M83 ; use relative distances for extrusion
M900 K0.05 ; Filament gcode LA 1.5
M900 K30 ; Filament gcode LA 1.0
M107
;LAYER_CHANGE
;Z:0.2
;HEIGHT:0.2
;BEFORE_LAYER_CHANGE
G92 E0.0
;0.2


G1 E-.8 F2100
G1 Z.4 F720
;AFTER_LAYER_CHANGE
;0.2
G1 X68.815 Y84.324 F10800
G1 Z.2 F720
G1 E.8 F2100
M204 S800
;TYPE:Skirt/Brim
;WIDTH:0.42
G1 F1200
G1 X69.755 Y84.131 E.03008
G1 X180.245 Y84.131 E3.46434
G1 X181.552 Y84.522 E.04278
G1 X182.428 Y85.568 E.04278
G1 X182.622 Y86.508 E.03008
G1 X182.622 Y123.492 E1.15963
G1 X182.23 Y124.799 E.04278
M73 P1 R22
M73 Q1 S22
G1 X181.185 Y125.676 E.04278
G1 X180.245 Y125.869 E.03008
G1 X69.755 Y125.869 E3.46434
G1 X68.448 Y125.478 E.04278
G1 X67.572 Y124.432 E.04278
G1 X67.378 Y123.492 E.03008
G1 X67.378 Y86.508 E1.15963
G1 X67.77 Y85.201 E.04278
G1 X68.769 Y84.363 E.0409
M204 S1000
; printing object bd1-blister-box v5.stl id:0 copy 0
;WIPE_START
G1 F8640
G1 X69.755 Y84.131 E-.23384
G1 X72.034 Y84.131 E-.52616
;WIPE_END
G1 E-.04 F2100
G1 Z.6 F720
G1 X179.458 Y87.36 F10800
G1 Z.2 F720
G1 E.8 F2100
M204 S800
;TYPE:Perimeter
;WIDTH:0.419999
G1 F1200
G1 X179.458 Y122.64 E1.10617
G1 X70.542 Y122.64 E3.41497
G1 X70.542 Y87.36 E1.10617
M73 P2 R21
M73 Q2 S22
G1 X179.398 Y87.36 E3.41309
M204 S1000
G1 X179.835 Y86.983 F10800
M204 S800
;TYPE:External perimeter
G1 F1200
G1 X179.835 Y123.017 E1.12981
G1 X70.165 Y123.017 E3.43862
G1 X70.165 Y86.983 E1.12981
M73 P3 R21
M73 Q3 S22
G1 X179.775 Y86.983 E3.43674
M204 S1000
G1 X179.673 Y87.349 F10800
;WIPE_START
G1 F8640
G1 X179.78 Y90.275 E-.76
;WIPE_END
G1 E-.04 F2100
G1 Z.6 F720
G1 X79.057 Y116.233 F10800
G1 Z.2 F720
G1 E.8 F2100
M204 S800
;TYPE:Perimeter
G1 F1200
M73 P4 R21
G1 X79.049 Y93.825 E.7026
G1 X79.096 Y93.599 E.00722
M73 Q4 S22
G1 X79.28 Y93.369 E.00924
G1 X79.517 Y93.268 E.00809
G1 X170.385 Y93.259 E2.8491
G1 X170.621 Y93.311 E.00758
M73 Q4 S21
G1 X170.8 Y93.441 E.00694
G1 X170.93 Y93.671 E.00828
G1 X170.951 Y93.825 E.00487
G1 X170.951 Y116.175 E.70078
G1 X170.904 Y116.401 E.00722
G1 X170.72 Y116.631 E.00924
G1 X170.483 Y116.732 E.00809
G1 X79.615 Y116.741 E2.8491
G1 X79.379 Y116.689 E.00758
G1 X79.2 Y116.559 E.00694
G1 X79.065 Y116.293 E.00936
M204 S1000
G1 X79.426 Y116.175 F10800
M204 S800
;TYPE:External perimeter
G1 F1200
G1 X79.426 Y93.825 E.70078
G1 X79.476 Y93.697 E.00431
G1 X79.615 Y93.636 E.00474
G1 X170.385 Y93.636 E2.84604
G1 X170.524 Y93.697 E.00474
M73 P5 R21
M73 Q5 S21
G1 X170.574 Y93.825 E.00431
G1 X170.574 Y116.175 E.70078
G1 X170.524 Y116.303 E.00431
G1 X170.385 Y116.364 E.00474
G1 X79.615 Y116.364 E2.84604
G1 X79.476 Y116.303 E.00474
G1 X79.448 Y116.231 E.00243
M204 S1000
G1 X79.04 Y116.072 F10800
;WIPE_START
G1 F8640
G1 X79.445 Y112.94 E-.76
;WIPE_END
G1 E-.04 F2100
G1 Z.6 F720
G1 X179.345 Y88.238 F10800
G1 Z.2 F720
G1 E.8 F2100
M204 S800
;TYPE:Solid infill
;WIDTH:0.420968
G1 F1200
G1 X178.75 Y87.643 E.02644
G1 X178.216 Y87.643 E.01681
G1 X179.175 Y88.603 E.04266
G1 X179.175 Y89.137 E.01681
G1 X177.681 Y87.643 E.06643
G1 X177.146 Y87.643 E.01681
G1 X179.175 Y89.672 E.09019
G1 X179.175 Y90.206 E.01681
G1 X176.612 Y87.643 E.11396
G1 X176.077 Y87.643 E.01681
G1 X179.175 Y90.741 E.13773
G1 X179.175 Y91.276 E.01681
G1 X175.542 Y87.643 E.1615
G1 X175.008 Y87.643 E.01681
G1 X179.175 Y91.81 E.18527
G1 X179.175 Y92.345 E.01681
G1 X174.473 Y87.643 E.20903
G1 X173.938 Y87.643 E.01681
G1 X179.175 Y92.88 E.2328
G1 X179.175 Y93.414 E.01681
G1 X173.404 Y87.643 E.25657
G1 X172.869 Y87.643 E.01681
G1 X179.175 Y93.949 E.28034
G1 X179.175 Y94.484 E.01681
M73 P6 R21
G1 X172.334 Y87.643 E.3041
G1 X171.8 Y87.643 E.01681
M73 Q6 S21
G1 X179.175 Y95.018 E.32787
G1 X179.175 Y95.553 E.01681
G1 X171.265 Y87.643 E.35164
G1 X170.731 Y87.643 E.01681
G1 X179.175 Y96.088 E.37541
G1 X179.175 Y96.622 E.01681
G1 X170.196 Y87.643 E.39918
G1 X169.661 Y87.643 E.01681
G1 X179.175 Y97.157 E.42294
G1 X179.175 Y97.691 E.01681
G1 X169.127 Y87.643 E.44671
G1 X168.592 Y87.643 E.01681
M73 P6 R20
G1 X179.175 Y98.226 E.47048
G1 X179.175 Y98.761 E.01681
G1 X168.057 Y87.643 E.49425
G1 X167.523 Y87.643 E.01681
G1 X179.175 Y99.295 E.51801
G1 X179.175 Y99.83 E.01681
G1 X166.988 Y87.643 E.54178
G1 X166.453 Y87.643 E.01681
G1 X179.175 Y100.365 E.56555
G1 X179.175 Y100.899 E.01681
G1 X165.919 Y87.643 E.58932
G1 X165.384 Y87.643 E.01681
G1 X179.175 Y101.434 E.61309
G1 X179.175 Y101.969 E.01681
G1 X171.234 Y94.027 E.35304
G1 X171.234 Y94.562 E.01681
G1 X179.175 Y102.503 E.35304
G1 X179.175 Y103.038 E.01681
G1 X171.234 Y95.096 E.35304
G1 X171.234 Y95.631 E.01681
G1 X179.175 Y103.573 E.35304
G1 X179.175 Y104.107 E.01681
M73 P7 R20
G1 X171.234 Y96.166 E.35304
G1 X171.234 Y96.7 E.01681
G1 X179.175 Y104.642 E.35304
G1 X179.175 Y105.176 E.01681
M73 Q7 S21
G1 X171.234 Y97.235 E.35304
G1 X171.234 Y97.77 E.01681
G1 X179.175 Y105.711 E.35304
G1 X179.175 Y106.246 E.01681
G1 X171.234 Y98.304 E.35304
G1 X171.234 Y98.839 E.01681
G1 X179.175 Y106.78 E.35304
G1 X179.175 Y107.315 E.01681
G1 X171.234 Y99.374 E.35304
G1 X171.234 Y99.908 E.01681
G1 X179.175 Y107.85 E.35304
G1 X179.175 Y108.384 E.01681
G1 X171.234 Y100.443 E.35304
G1 X171.234 Y100.977 E.01681
G1 X179.175 Y108.919 E.35304
G1 X179.175 Y109.454 E.01681
G1 X171.234 Y101.512 E.35304
G1 X171.234 Y102.047 E.01681
G1 X179.175 Y109.988 E.35304
G1 X179.175 Y110.523 E.01681
G1 X171.234 Y102.581 E.35304
G1 X171.234 Y103.116 E.01681
G1 X179.175 Y111.057 E.35304
G1 X179.175 Y111.592 E.01681
G1 X171.234 Y103.651 E.35304
G1 X171.234 Y104.185 E.01681
G1 X179.175 Y112.127 E.35304
G1 X179.175 Y112.661 E.01681
G1 X171.234 Y104.72 E.35304
G1 X171.234 Y105.255 E.01681
G1 X179.175 Y113.196 E.35304
G1 X179.175 Y113.731 E.01681
G1 X171.234 Y105.789 E.35304
G1 X171.234 Y106.324 E.01681
G1 X179.175 Y114.265 E.35304
G1 X179.175 Y114.8 E.01681
G1 X171.234 Y106.858 E.35304
G1 X171.234 Y107.393 E.01681
G1 X179.175 Y115.335 E.35304
G1 X179.175 Y115.869 E.01681
G1 X171.234 Y107.928 E.35304
G1 X171.234 Y108.462 E.01681
M73 P8 R20
G1 X179.175 Y116.404 E.35304
G1 X179.175 Y116.939 E.01681
G1 X171.234 Y108.997 E.35304
G1 X171.234 Y109.532 E.01681
M73 Q8 S21
G1 X179.175 Y117.473 E.35304
G1 X179.175 Y118.008 E.01681
G1 X171.234 Y110.066 E.35304
G1 X171.234 Y110.601 E.01681
G1 X179.175 Y118.542 E.35304
G1 X179.175 Y119.077 E.01681
G1 X171.234 Y111.136 E.35304
G1 X171.234 Y111.67 E.01681
G1 X179.175 Y119.612 E.35304
G1 X179.175 Y120.146 E.01681
G1 X171.234 Y112.205 E.35304
G1 X171.234 Y112.74 E.01681
G1 X179.175 Y120.681 E.35304
G1 X179.175 Y121.216 E.01681
G1 X171.234 Y113.274 E.35304
G1 X171.234 Y113.809 E.01681
G1 X179.175 Y121.75 E.35304
G1 X179.175 Y122.285 E.01681
G1 X171.234 Y114.343 E.35304
G1 X171.234 Y114.878 E.01681
G1 X178.713 Y122.357 E.33248
G1 X178.178 Y122.357 E.01681
G1 X171.234 Y115.413 E.30871
G1 X171.234 Y115.947 E.01681
G1 X177.643 Y122.357 E.28495
G1 X177.109 Y122.357 E.01681
G1 X171.189 Y116.437 E.26317
G1 X171.101 Y116.631 E.00669
M73 Q8 S20
G1 X170.987 Y116.77 E.00565
G1 X176.574 Y122.357 E.24836
G1 X176.039 Y122.357 E.01681
G1 X170.657 Y116.974 E.23928
G1 X170.569 Y117.004 E.00293
G1 X170.39 Y117.024 E.00563
G1 X170.171 Y117.024 E.00688
G1 X175.505 Y122.357 E.2371
G1 X174.97 Y122.357 E.01681
G1 X169.637 Y117.024 E.2371
G1 X169.102 Y117.024 E.01681
G1 X174.435 Y122.357 E.2371
G1 X173.901 Y122.357 E.01681
G1 X168.567 Y117.024 E.2371
G1 X168.033 Y117.024 E.01681
G1 X173.366 Y122.357 E.2371
G1 X172.832 Y122.357 E.01681
G1 X167.498 Y117.024 E.2371
G1 X166.964 Y117.024 E.01681
G1 X172.297 Y122.357 E.2371
G1 X171.762 Y122.357 E.01681
M73 P9 R20
G1 X166.429 Y117.024 E.2371
G1 X165.894 Y117.024 E.01681
G1 X171.228 Y122.357 E.2371
G1 X170.693 Y122.357 E.01681
G1 X165.36 Y117.024 E.2371
G1 X164.825 Y117.024 E.01681
G1 X170.158 Y122.357 E.2371
G1 X169.624 Y122.357 E.01681
M73 Q9 S20
G1 X164.29 Y117.024 E.2371
G1 X163.756 Y117.024 E.01681
G1 X169.089 Y122.357 E.2371
G1 X168.554 Y122.357 E.01681
G1 X163.221 Y117.024 E.2371
G1 X162.686 Y117.024 E.01681
G1 X168.02 Y122.357 E.2371
G1 X167.485 Y122.357 E.01681
G1 X162.152 Y117.024 E.2371
G1 X161.617 Y117.024 E.01681
G1 X166.95 Y122.357 E.2371
G1 X166.416 Y122.357 E.01681
G1 X161.082 Y117.024 E.2371
G1 X160.548 Y117.024 E.01681
G1 X165.881 Y122.357 E.2371
G1 X165.347 Y122.357 E.01681
G1 X160.013 Y117.024 E.2371
G1 X159.479 Y117.024 E.01681
G1 X164.812 Y122.357 E.2371
G1 X164.277 Y122.357 E.01681
G1 X158.944 Y117.024 E.2371
G1 X158.409 Y117.024 E.01681
G1 X163.743 Y122.357 E.2371
G1 X163.208 Y122.357 E.01681
G1 X157.875 Y117.024 E.2371
G1 X157.34 Y117.024 E.01681
G1 X162.673 Y122.357 E.2371
G1 X162.139 Y122.357 E.01681
G1 X156.805 Y117.024 E.2371
G1 X156.271 Y117.024 E.01681
G1 X161.604 Y122.357 E.2371
G1 X161.069 Y122.357 E.01681
G1 X155.736 Y117.024 E.2371
G1 X155.201 Y117.024 E.01681
G1 X160.535 Y122.357 E.2371
G1 X160 Y122.357 E.01681
G1 X154.667 Y117.024 E.2371
G1 X154.132 Y117.024 E.01681
G1 X159.466 Y122.357 E.2371
G1 X158.931 Y122.357 E.01681
G1 X153.597 Y117.024 E.2371
G1 X153.063 Y117.024 E.01681
G1 X158.396 Y122.357 E.2371
G1 X157.862 Y122.357 E.01681
G1 X152.528 Y117.024 E.2371
G1 X151.994 Y117.024 E.01681
G1 X157.327 Y122.357 E.2371
G1 X156.792 Y122.357 E.01681
G1 X151.459 Y117.024 E.2371
G1 X150.924 Y117.024 E.01681
G1 X156.258 Y122.357 E.2371
G1 X155.723 Y122.357 E.01681
G1 X150.39 Y117.024 E.2371
G1 X149.855 Y117.024 E.01681
G1 X155.188 Y122.357 E.2371
G1 X154.654 Y122.357 E.01681
M73 P10 R20
G1 X149.32 Y117.024 E.2371
G1 X148.786 Y117.024 E.01681
G1 X154.119 Y122.357 E.2371
G1 X153.584 Y122.357 E.01681
G1 X148.251 Y117.024 E.2371
G1 X147.716 Y117.024 E.01681
G1 X153.05 Y122.357 E.2371
G1 X152.515 Y122.357 E.01681
G1 X147.182 Y117.024 E.2371
G1 X146.647 Y117.024 E.01681
M73 Q10 S20
G1 X151.981 Y122.357 E.2371
G1 X151.446 Y122.357 E.01681
G1 X146.113 Y117.024 E.2371
G1 X145.578 Y117.024 E.01681
G1 X150.911 Y122.357 E.2371
G1 X150.377 Y122.357 E.01681
G1 X145.043 Y117.024 E.2371
G1 X144.509 Y117.024 E.01681
G1 X149.842 Y122.357 E.2371
G1 X149.307 Y122.357 E.01681
G1 X143.974 Y117.024 E.2371
G1 X143.439 Y117.024 E.01681
G1 X148.773 Y122.357 E.2371
G1 X148.238 Y122.357 E.01681
G1 X142.905 Y117.024 E.2371
G1 X142.37 Y117.024 E.01681
G1 X147.703 Y122.357 E.2371
G1 X147.169 Y122.357 E.01681
G1 X141.835 Y117.024 E.2371
G1 X141.301 Y117.024 E.01681
G1 X146.634 Y122.357 E.2371
G1 X146.1 Y122.357 E.01681
G1 X140.766 Y117.024 E.2371
G1 X140.231 Y117.024 E.01681
G1 X145.565 Y122.357 E.2371
G1 X145.03 Y122.357 E.01681
G1 X139.697 Y117.024 E.2371
G1 X139.162 Y117.024 E.01681
G1 X144.496 Y122.357 E.2371
G1 X143.961 Y122.357 E.01681
G1 X138.628 Y117.024 E.2371
G1 X138.093 Y117.024 E.01681
G1 X143.426 Y122.357 E.2371
G1 X142.892 Y122.357 E.01681
G1 X137.558 Y117.024 E.2371
G1 X137.024 Y117.024 E.01681
G1 X142.357 Y122.357 E.2371
G1 X141.822 Y122.357 E.01681
G1 X136.489 Y117.024 E.2371
G1 X135.954 Y117.024 E.01681
G1 X141.288 Y122.357 E.2371
G1 X140.753 Y122.357 E.01681
G1 X135.42 Y117.024 E.2371
G1 X134.885 Y117.024 E.01681
M73 P10 R19
G1 X140.218 Y122.357 E.2371
G1 X139.684 Y122.357 E.01681
G1 X134.35 Y117.024 E.2371
G1 X133.816 Y117.024 E.01681
G1 X139.149 Y122.357 E.2371
G1 X138.615 Y122.357 E.01681
G1 X133.281 Y117.024 E.2371
G1 X132.747 Y117.024 E.01681
G1 X138.08 Y122.357 E.2371
G1 X137.545 Y122.357 E.01681
G1 X132.212 Y117.024 E.2371
G1 X131.677 Y117.024 E.01681
M73 P11 R19
G1 X137.011 Y122.357 E.2371
G1 X136.476 Y122.357 E.01681
G1 X131.143 Y117.024 E.2371
G1 X130.608 Y117.024 E.01681
G1 X135.941 Y122.357 E.2371
G1 X135.407 Y122.357 E.01681
G1 X130.073 Y117.024 E.2371
G1 X129.539 Y117.024 E.01681
G1 X134.872 Y122.357 E.2371
G1 X134.337 Y122.357 E.01681
M73 Q11 S20
G1 X129.004 Y117.024 E.2371
G1 X128.469 Y117.024 E.01681
G1 X133.803 Y122.357 E.2371
G1 X133.268 Y122.357 E.01681
G1 X127.935 Y117.024 E.2371
G1 X127.4 Y117.024 E.01681
G1 X132.733 Y122.357 E.2371
G1 X132.199 Y122.357 E.01681
G1 X126.865 Y117.024 E.2371
G1 X126.331 Y117.024 E.01681
G1 X131.664 Y122.357 E.2371
G1 X131.13 Y122.357 E.01681
G1 X125.796 Y117.024 E.2371
G1 X125.262 Y117.024 E.01681
G1 X130.595 Y122.357 E.2371
G1 X130.06 Y122.357 E.01681
G1 X124.727 Y117.024 E.2371
G1 X124.192 Y117.024 E.01681
G1 X129.526 Y122.357 E.2371
G1 X128.991 Y122.357 E.01681
G1 X123.658 Y117.024 E.2371
G1 X123.123 Y117.024 E.01681
G1 X128.456 Y122.357 E.2371
G1 X127.922 Y122.357 E.01681
G1 X122.588 Y117.024 E.2371
G1 X122.054 Y117.024 E.01681
G1 X127.387 Y122.357 E.2371
G1 X126.852 Y122.357 E.01681
G1 X121.519 Y117.024 E.2371
G1 X120.984 Y117.024 E.01681
G1 X126.318 Y122.357 E.2371
G1 X125.783 Y122.357 E.01681
G1 X120.45 Y117.024 E.2371
G1 X119.915 Y117.024 E.01681
G1 X125.249 Y122.357 E.2371
G1 X124.714 Y122.357 E.01681
G1 X119.38 Y117.024 E.2371
G1 X118.846 Y117.024 E.01681
G1 X124.179 Y122.357 E.2371
G1 X123.645 Y122.357 E.01681
G1 X118.311 Y117.024 E.2371
G1 X117.777 Y117.024 E.01681
G1 X123.11 Y122.357 E.2371
G1 X122.575 Y122.357 E.01681
G1 X117.242 Y117.024 E.2371
G1 X116.707 Y117.024 E.01681
G1 X122.041 Y122.357 E.2371
G1 X121.506 Y122.357 E.01681
G1 X116.173 Y117.024 E.2371
G1 X115.638 Y117.024 E.01681
G1 X120.971 Y122.357 E.2371
G1 X120.437 Y122.357 E.01681
G1 X115.103 Y117.024 E.2371
G1 X114.569 Y117.024 E.01681
M73 P12 R19
G1 X119.902 Y122.357 E.2371
G1 X119.367 Y122.357 E.01681
G1 X114.034 Y117.024 E.2371
G1 X113.499 Y117.024 E.01681
G1 X118.833 Y122.357 E.2371
G1 X118.298 Y122.357 E.01681
G1 X112.965 Y117.024 E.2371
G1 X112.43 Y117.024 E.01681
G1 X117.764 Y122.357 E.2371
G1 X117.229 Y122.357 E.01681
G1 X111.896 Y117.024 E.2371
G1 X111.361 Y117.024 E.01681
M73 Q12 S20
G1 X116.694 Y122.357 E.2371
G1 X116.16 Y122.357 E.01681
G1 X110.826 Y117.024 E.2371
G1 X110.292 Y117.024 E.01681
G1 X115.625 Y122.357 E.2371
G1 X115.09 Y122.357 E.01681
G1 X109.757 Y117.024 E.2371
G1 X109.222 Y117.024 E.01681
G1 X114.556 Y122.357 E.2371
G1 X114.021 Y122.357 E.01681
G1 X108.688 Y117.024 E.2371
G1 X108.153 Y117.024 E.01681
G1 X113.486 Y122.357 E.2371
G1 X112.952 Y122.357 E.01681
G1 X107.618 Y117.024 E.2371
G1 X107.084 Y117.024 E.01681
G1 X112.417 Y122.357 E.2371
G1 X111.883 Y122.357 E.01681
G1 X106.549 Y117.024 E.2371
G1 X106.014 Y117.024 E.01681
G1 X111.348 Y122.357 E.2371
G1 X110.813 Y122.357 E.01681
G1 X105.48 Y117.024 E.2371
G1 X104.945 Y117.024 E.01681
G1 X110.279 Y122.357 E.2371
G1 X109.744 Y122.357 E.01681
G1 X104.411 Y117.024 E.2371
G1 X103.876 Y117.024 E.01681
G1 X109.209 Y122.357 E.2371
G1 X108.675 Y122.357 E.01681
G1 X103.341 Y117.024 E.2371
G1 X102.807 Y117.024 E.01681
G1 X108.14 Y122.357 E.2371
G1 X107.605 Y122.357 E.01681
G1 X102.272 Y117.024 E.2371
G1 X101.737 Y117.024 E.01681
G1 X107.071 Y122.357 E.2371
G1 X106.536 Y122.357 E.01681
G1 X101.203 Y117.024 E.2371
G1 X100.668 Y117.024 E.01681
G1 X106.001 Y122.357 E.2371
G1 X105.467 Y122.357 E.01681
G1 X100.133 Y117.024 E.2371
